X:1
T:James Gibb editions
T:From the Cross the blood is falling - Barnby
%%score [ ( 1 2 ) ( 3 4 ) ]
L:1/8
Q:1/4=80
M:4/4
K:D
V:1 treble nm="Midi_74"
V:2 treble 
V:3 bass nm="Midi_74"
V:4 bass 
V:1
"^Horatio Bonar\n(1808-89)""^Genoa (887. 887)""^From the Cross the blood is falling""^Joseph Barnby\n(1838-96)" F2 F2 F2 B2 | %1
 !courtesy!=A2 G2 G2 F2 || F2 F2 F2 B2 | !courtesy!=A2 ^G2 G2 F2 || F2 F2 d3 d | c2 c2 c4 || %6
[M:4/4] c2 c2 d2 F2 | B2 A2 A2 G2 || c2 c2 d2 F2 | B2 A2 A2 G2 || F2 E2 F2 F2 | F2 F2 F4 || %12
 E4 ^D4 |] %13
V:2
 D2 E2 D2 F2 | F2 E2 E2 D2 || D2 E2 D2 D2 | C2 ^E2 E2 F2 || B,2 C2 D2 F2 | F2 ^E2 F4 || %6
[M:4/4] F2 !courtesy!=E2 D2 D2 | F2 F2 F2 G2 || F2 E2 D2 D2 | D2 D2 D2 D2 || D2 D2 D2 B,2 | %11
 ^A,2 A,2 B,4 || B,4 B,4 |] %13
V:3
 F,2 ^A,2 B,2 D2 | B,2 B,2 B,2 B,2 || B,2 ^A,2 B,2 F,2 | ^E,2 B,2 B,2 ^A,2 || ^G,2 ^A,2 B,2 G,2 | %5
 ^G,2 B,2 ^A,4 ||[M:4/4] !courtesy!=A,2 G,2 F,2 A,2 | %7
 D2 =C2"^1. From the Cross the blood is falling,\nAnd to us a voice is calling,\nLike a trumpet silver-clear;\n'Tis the voice announcing pardon,\n\"It is finished,\" is its burden,\nPardon to the far and near.\n\n2. Peace that precious blood is sealing,\nAll our wounds forever healing,\nAnd removing every load;\nWords of peace that voice has spoken,\nPeace that shall no more be broken,\nPeace between the soul and God.\n\n3. God is love; we read the writing\nTraced so deeply in the smiting\nOf the glorious Surety there.\nGod is light; we see it beaming\nLike a heavenly dayspring gleaming,\nSo divinely sweet and fair." C2 B,2 || %8
 A,2 G,2 F,2 F,2 | F,2 F,2 F,2 G,2 || A,2 B,2 B,2 D,2 | C,2 E,2 D,4 || G,4 F,4 |] %13
V:4
 B,,2 C,2 D,2 B,,2 | E,2 G,2 B,2 B,,2 || B,,2 C,2 D,2 B,,2 | C,2 C,2 F,2 F,2 || F,2 F,2 B,,2 B,,2 | %5
 C,2 C,2 F,4 ||[M:4/4] !courtesy!=A,,2 A,,2 D,2 D,2 | D,2 D,2 G,,2 G,,2 || A,,2 A,,2 B,,2 B,,2 | %9
 =C,2 C,2 B,,2 B,,2 || A,,2 G,,2 F,,2 F,,2 | F,,2 F,,2 B,,4 || E,4 B,,4 |] %13

